polaris-icons/icons/new-icons/TransactionMajor.svg

<svg width="20" height="20" viewBox="0 0 20 20" fill="none" xmlns="http://www.w3.org/2000/svg">
<path d="M4.5 4.75C4.5 4.33579 4.16421 4 3.75 4C3.33579 4 3 4.33579 3 4.75V15.25C3 15.6642 3.33579 16 3.75 16C4.16421 16 4.5 15.6642 4.5 15.25L4.5 8.5L11.4393 8.5L10.7197 9.21967C10.4268 9.51256 10.4268 9.98744 10.7197 10.2803C11.0126 10.5732 11.4874 10.5732 11.7803 10.2803L13.7803 8.28033C14.0732 7.98744 14.0732 7.51256 13.7803 7.21967L11.7803 5.21967C11.4874 4.92678 11.0126 4.92678 10.7197 5.21967C10.4268 5.51256 10.4268 5.98744 10.7197 6.28033L11.4393 7L4.5 7V4.75Z" fill="#4A4A4A"/>
<path d="M17 4.75C17 4.33579 16.6642 4 16.25 4C15.8358 4 15.5 4.33579 15.5 4.75V12H8.56066L9.28033 11.2803C9.57322 10.9874 9.57322 10.5126 9.28033 10.2197C8.98744 9.92678 8.51256 9.92678 8.21967 10.2197L6.21967 12.2197C5.92678 12.5126 5.92678 12.9874 6.21967 13.2803L8.21967 15.2803C8.51256 15.5732 8.98744 15.5732 9.28033 15.2803C9.57322 14.9874 9.57322 14.5126 9.28033 14.2197L8.56066 13.5H15.5V15.25C15.5 15.6642 15.8358 16 16.25 16C16.6642 16 17 15.6642 17 15.25V4.75Z" fill="#4A4A4A"/>
</svg>

<svg viewBox="0 0 20 20" xmlns="http://www.w3.org/2000/svg"><path d="M4.5 4.75a.75.75 0 0 0-1.5 0v10.5a.75.75 0 0 0 1.5 0v-6.75h6.94l-.72.72a.75.75 0 1 0 1.06 1.06l2-2a.75.75 0 0 0 0-1.06l-2-2a.75.75 0 1 0-1.06 1.06l.72.72h-6.94v-2.25Z" fill="#5C5F62"/><path d="M17 4.75a.75.75 0 0 0-1.5 0v7.25h-6.94l.72-.72a.75.75 0 1 0-1.06-1.06l-2 2a.75.75 0 0 0 0 1.06l2 2a.75.75 0 0 0 1.06-1.06l-.72-.72h6.94v1.75a.75.75 0 0 0 1.5 0v-10.5Z" fill="#5C5F62"/></svg>
